outputs/icons/people/person_admin_round.svg

<svg width="1200" height="1200" viewBox="0 0 1200 1200" fill="none" xmlns="http://www.w3.org/2000/svg"><path d="M850 550C867 550 883.5 552 900 554.5V321.685C900 316.714 897.055 312.214 892.495 310.227L529.995 152.177C526.81 150.788 523.19 150.788 520.005 152.177L157.504 310.227C152.947 312.214 150 316.714 150 321.685V559C150 786 310 998.5 525 1050C552.5 1043.5 579 1034 605 1022.5C570.5 973.5 550 914 550 850C550 684.5 684.5 550 850 550Z" fill="#1D1E23"/><path d="M850 650C739.5 650 650 739.5 650 850C650 960.5 739.5 1050 850 1050C960.5 1050 1050 960.5 1050 850C1050 739.5 960.5 650 850 650ZM850 719C881 719 906 744.5 906 775C906 805.5 880.5 831 850 831C819.5 831 794 805.5 794 775C794 744.5 819 719 850 719ZM850 987.5C803.5 987.5 763 964.5 738 929C740.5 893 813.5 875 850 875C886.5 875 959.5 893 962 929C937 964.5 896.5 987.5 850 987.5Z" fill="#1D1E23"/></svg>

<svg xmlns="http://www.w3.org/2000/svg" width="1200" height="1200" fill="none"><path fill="#000" d="M850 550c17 0 33.5 2 50 4.5V321.685c0-4.971-2.945-9.471-7.505-11.458l-362.5-158.05a12.5 12.5 0 0 0-9.99 0l-362.501 158.05A12.5 12.5 0 0 0 150 321.685V559c0 227 160 439.5 375 491 27.5-6.5 54-16 80-27.5-34.5-49-55-108.5-55-172.5 0-165.5 134.5-300 300-300"/><path fill="#000" d="M850 650c-110.5 0-200 89.5-200 200s89.5 200 200 200 200-89.5 200-200-89.5-200-200-200m0 69c31 0 56 25.5 56 56s-25.5 56-56 56-56-25.5-56-56 25-56 56-56m0 268.5c-46.5 0-87-23-112-58.5 2.5-36 75.5-54 112-54s109.5 18 112 54c-25 35.5-65.5 58.5-112 58.5"/></svg>
